X: 13321
M: C|
L: 1/8
K: D
V: 1 clef=treble middle=B
(3ABc |\
d>cd>A F>AF>A | d>cd>A F2 (3(def) |\
g>fg>e f>ef>d | c2A2 A2B>c |\
d>cd>A F>AF>A |
d>cd>A F2 (3(def) | g>fg>e f>ef>d |\
a3f a>fa>f | b>gb>g e2f>g |
a3f (3(bag) (3(fed) | c2[A2C2] [A2C2]f>g |\
a3f a>fa>f | b>gb>g e2f>g |\
a>fa>f a>ge>c | A2[d2F2] [d2F2] :|
V: 2 clef=bass middle=d
z2 |\
z2[d'2f2] [d'2f2][d'2f2] & d8 | z2[d'2f2] [d'2f2]z2 & d8 |\
c'2a2 d'2d2 | a2A2 agfe |\
z2[d'2f2] [d'2f2][d'2f2] & d8 | z2[d'2f2] [d'2f2]z2 & d8 |\
a4 A4 | d2D2 d2 :|
|: z2 |\

